outputs/icons/enterprise/barcode_bluetooth_round.svg

<svg xmlns="http://www.w3.org/2000/svg" width="1200" height="1200" fill="none"><path fill="#000" d="M100 100h125v750H100zM975 100h125v750H975zM919.445 100H850v597.22h69.445zM619.82 723.515l40.44 41.29-40.44 41.305zM619.82 976.505l40.44-41.29-40.44-41.33z"/><path fill="#000" fill-rule="evenodd" d="M780.555 850c0 198.145-73.655 250-180.525 250-106.891 0-180.585-51.855-180.585-250s73.713-250 180.585-250c106.87 0 180.525 51.855 180.525 250m-291.47-89.61 87.5 89.61-87.5 89.61 25.355 25.895 69.72-71.21v170.685l126.755-129.475L627.22 850l83.695-85.49L584.16 635.04v170.685l-69.72-71.235z"/><path fill="#000" d="M787.235 605.39c2.47 2.75 4.86 5.595 7.21 8.5V100h-97.22v447.475c34.955 11.125 66.07 31.15 90.01 57.915M627.78 544.445q-13.403-1.344-27.78-1.345c-9.585.01-18.84.46-27.775 1.345V100h55.555zM502.78 551.52V100h-55.557v486.11c16.49-15.24 35.318-26.965 55.557-34.59M377.778 100v577.065a299 299 0 0 0-7.616 20.155h-89.607V100z"/></svg>

<svg width="1200" height="1200" viewBox="0 0 1200 1200" fill="none" xmlns="http://www.w3.org/2000/svg"><path fill-rule="evenodd" d="M100 100H225V850H100V100ZM975 100H1100V850H975V100ZM919.445 100H850V697.22H919.445V100ZM619.82 723.515L619.78 723.475H619.82V723.515ZM619.82 723.515L660.26 764.805L619.82 806.11V723.515ZM619.82 976.505L619.78 976.545H619.82V976.505ZM619.82 976.505L660.26 935.215L619.82 893.885V976.505ZM489.085 760.39L576.585 850L489.085 939.61L514.44 965.505L584.16 894.295V1064.98L710.915 935.505L627.22 850L710.915 764.51L584.16 635.04V805.725L514.44 734.49L489.085 760.39ZM780.555 850C780.555 1048.145 706.9 1100 600.03 1100C493.139 1100 419.445 1048.145 419.445 850C419.445 651.855 493.158 600 600.03 600C706.9 600 780.555 651.855 780.555 850ZM787.235 605.39C789.705 608.14 792.095 610.985 794.445 613.89V100H697.225V547.475C732.18 558.6 763.295 578.625 787.235 605.39ZM627.78 544.445C618.845 543.55 609.585 543.1 600 543.1C590.415 543.11 581.16 543.56 572.225 544.445V100H627.78V544.445ZM502.78 551.52V100H447.223V586.11C463.713 570.87 482.541 559.145 502.78 551.52ZM377.778 100V677.065C375.05 683.55 372.512 690.27 370.162 697.22H280.555V100H377.778Z" fill="#1D1E23"/></svg>
